symbols/web/branding_watermark/materialsymbolsrounded/branding_watermark_wght100_48px.svg

<svg xmlns="http://www.w3.org/2000/svg" height="48" width="48"><path d="M22.75 32.8h12.7q.55 0 .95-.4.4-.4.4-.95v-8.8q0-.55-.4-.95-.4-.4-.95-.4h-12.7q-.6 0-.975.4t-.375.95v8.8q0 .55.375.95.375.4.975.4ZM9.3 37.4q-1.15 0-1.925-.775Q6.6 35.85 6.6 34.7V13.3q0-1.15.775-1.925Q8.15 10.6 9.3 10.6h29.4q1.15 0 1.925.775.775.775.775 1.925v21.4q0 1.15-.775 1.925-.775.775-1.925.775Zm0-1.1q-.7 0-1.15-.45-.45-.45-.45-1.15V13.3q0-.7.45-1.15.45-.45 1.15-.45-.7 0-1.15.45-.45.45-.45 1.15v21.4q0 .7.45 1.15.45.45 1.15.45Zm0 0h29.4q.7 0 1.15-.45.45-.45.45-1.15V13.3q0-.7-.45-1.15-.45-.45-1.15-.45H9.3q-.7 0-1.15.45-.45.45-.45 1.15v21.4q0 .7.45 1.15.45.45 1.15.45Z"/></svg>

<svg xmlns="http://www.w3.org/2000/svg" height="48" width="48"><path d="M22.75 32.8H35.45Q36 32.8 36.4 32.4Q36.8 32 36.8 31.45V22.65Q36.8 22.1 36.4 21.7Q36 21.3 35.45 21.3H22.75Q22.15 21.3 21.775 21.7Q21.4 22.1 21.4 22.65V31.45Q21.4 32 21.775 32.4Q22.15 32.8 22.75 32.8ZM9.3 37.4Q8.15 37.4 7.375 36.625Q6.6 35.85 6.6 34.7V13.3Q6.6 12.15 7.375 11.375Q8.15 10.6 9.3 10.6H38.7Q39.85 10.6 40.625 11.375Q41.4 12.15 41.4 13.3V34.7Q41.4 35.85 40.625 36.625Q39.85 37.4 38.7 37.4ZM9.3 36.3Q8.6 36.3 8.15 35.85Q7.7 35.4 7.7 34.7V13.3Q7.7 12.6 8.15 12.15Q8.6 11.7 9.3 11.7Q8.6 11.7 8.15 12.15Q7.7 12.6 7.7 13.3V34.7Q7.7 35.4 8.15 35.85Q8.6 36.3 9.3 36.3ZM9.3 36.3H38.7Q39.4 36.3 39.85 35.85Q40.3 35.4 40.3 34.7V13.3Q40.3 12.6 39.85 12.15Q39.4 11.7 38.7 11.7H9.3Q8.6 11.7 8.15 12.15Q7.7 12.6 7.7 13.3V34.7Q7.7 35.4 8.15 35.85Q8.6 36.3 9.3 36.3Z"/></svg>
